X:1
T:La fete du village
T:La fete du village
T:Adattamento diGian Mario Navillod
C:Adattamento diGian Mario Navillod
L:1/8
Q:1/4=120
M:2/4
K:G
V:1 treble 
V:1
 d | dG FG | A2 z d | dc BA | G2 G/ z/ d | dG FG | A2 z d | dc BA | G2 z d | dG FG | A2 A/ z/ d | %11
w: An|ne tte~et Ché ru|bin S'ai|mant à la fo|li e, Vont|u nir pour la|vie Leur|a ve nir de|main. Au|jour d'hui qu'on ap|pre te Cor|
 dc BA | G2 G/ z/ d | dG FG | A2 A/ z/ d | dc BA | G2 z2 | d2 B>d | B2 z d | ed cB | dd c z | %21
w: ne mu se~et mu|set te Et|que cha cun ré|pe te Au|son du tam bou|rin.|C'est au jour|d'hui la|fe te du vil|la * ge,|
 A2 A>c | A2 z c | ff ee | d2 B/ z/ d | B2 z d | B2 z d | ed cB | dd c z | A2 A>d | A2 z c | %31
w: Pré pa rez|vous, fil|lettes au blanc cor|sa ge Ve|nez dan|sez car|sous ce vert feuil|la * ge|Cha que gar|con s'est|
 fe dc | BB BB | Ac cc | Bd dd | ce ee | d2 z2 | G2 B>c | d2 d>f | e2 d>c | d2 B z | z |] %42
w: don né ren dez|vous A mu sez|vous, fai tes les|fous. A mu sez|vous fai tes les|fous.|Car ce son|là les plai|sirs du jeun|a ge.||

